assets/static/media/sponsors/quantco.svg

<?xml version="1.0" encoding="utf-8"?>
<!-- Generator: Adobe Illustrator 27.2.0, SVG Export Plug-In . SVG Version: 6.00 Build 0)  -->
<svg version="1.1" id="Layer_1" xmlns="http://www.w3.org/2000/svg" xmlns:xlink="http://www.w3.org/1999/xlink" x="0px" y="0px"
	 viewBox="0 0 612 792" style="enable-background:new 0 0 612 792;" xml:space="preserve">
<g>
	<path d="M86.03,457.48c-0.41-0.37-0.61-0.87-0.61-1.49v-19.33c-3.07,4.03-7.53,6.05-13.38,6.05c-5.79,0-10.27-1.83-13.42-5.49
		c-3.16-3.66-4.85-8.47-5.08-14.44l-0.09-3.07l0.09-3.07c0.23-6.07,1.91-10.91,5.04-14.52c3.13-3.61,7.62-5.41,13.47-5.41
		c6.08,0,10.71,2.1,13.9,6.3v-3.41c0-0.62,0.2-1.12,0.61-1.49c0.4-0.37,0.9-0.55,1.48-0.55h7.04c0.64,0,1.14,0.19,1.52,0.55
		c0.38,0.37,0.56,0.87,0.56,1.49v56.38c0,0.62-0.19,1.12-0.56,1.49c-0.38,0.37-0.88,0.55-1.52,0.55h-7.56
		C86.93,458.04,86.43,457.85,86.03,457.48z M82.68,430.53c1.71-1.99,2.62-4.4,2.74-7.24c0.06-0.74,0.09-1.84,0.09-3.32
		c0-1.48-0.03-2.56-0.09-3.24c-0.17-3.07-1.07-5.63-2.69-7.71c-1.62-2.07-4.08-3.11-7.39-3.11c-6.14,0-9.41,3.75-9.82,11.24
		c-0.06,0.57-0.09,1.42-0.09,2.56c0,1.14,0.03,1.99,0.09,2.56c0.4,7.5,3.68,11.24,9.82,11.24
		C78.53,433.51,80.97,432.51,82.68,430.53z"/>
	<path d="M114.96,437.59c-3.07-3.41-4.6-8.09-4.6-14.05v-23.93c0-0.62,0.2-1.12,0.61-1.49c0.4-0.37,0.9-0.55,1.48-0.55h7.82
		c0.58,0,1.07,0.2,1.48,0.6c0.4,0.4,0.61,0.88,0.61,1.45v23.42c0,6.98,3.1,10.48,9.3,10.48c3.01,0,5.4-0.94,7.17-2.81
		c1.77-1.87,2.65-4.43,2.65-7.67v-23.42c0-0.62,0.2-1.12,0.61-1.49c0.4-0.37,0.9-0.55,1.48-0.55h7.73c0.64,0,1.14,0.19,1.52,0.55
		c0.38,0.37,0.56,0.87,0.56,1.49v40.2c0,0.57-0.19,1.05-0.56,1.45c-0.38,0.4-0.88,0.6-1.52,0.6h-7.21c-0.58,0-1.07-0.2-1.48-0.6
		c-0.41-0.4-0.61-0.88-0.61-1.45v-3.49c-3.19,4.26-7.99,6.39-14.42,6.39C122.23,442.71,118.03,441,114.96,437.59z"/>
	<path d="M172,440.96c-2.46-1.16-4.4-2.74-5.82-4.73c-1.42-1.99-2.13-4.17-2.13-6.56c0-3.86,1.59-6.98,4.78-9.37
		c3.18-2.38,7.56-4,13.12-4.85l11.9-1.7v-1.79c0-2.44-0.64-4.29-1.91-5.54c-1.27-1.25-3.3-1.87-6.08-1.87
		c-1.91,0-3.45,0.34-4.61,1.02c-1.16,0.68-2.1,1.38-2.82,2.09c-0.72,0.71-1.2,1.18-1.43,1.41c-0.23,0.68-0.67,1.02-1.3,1.02h-6.78
		c-0.52,0-0.97-0.17-1.35-0.51c-0.38-0.34-0.56-0.79-0.56-1.36c0.06-1.42,0.77-3.02,2.13-4.81c1.36-1.79,3.46-3.35,6.3-4.68
		c2.84-1.33,6.34-2,10.51-2c6.83,0,11.82,1.51,14.94,4.51c3.13,3.01,4.69,6.96,4.69,11.84v26.74c0,0.57-0.19,1.05-0.56,1.45
		c-0.38,0.4-0.88,0.6-1.52,0.6h-7.21c-0.58,0-1.07-0.2-1.48-0.6c-0.41-0.4-0.61-0.88-0.61-1.45v-3.32
		c-1.27,1.82-3.07,3.31-5.39,4.47c-2.32,1.16-5.21,1.75-8.69,1.75C177.17,442.71,174.46,442.12,172,440.96z M190.89,431.46
		c2.03-2.04,3.04-5,3.04-8.86v-1.7l-8.69,1.36c-6.66,1.02-9.99,3.21-9.99,6.56c0,1.82,0.77,3.22,2.3,4.22
		c1.53,0.99,3.37,1.49,5.52,1.49C186.26,434.53,188.87,433.51,190.89,431.46z"/>
	<path d="M219.48,441.26c-0.41-0.4-0.61-0.88-0.61-1.45v-40.2c0-0.62,0.2-1.12,0.61-1.49c0.4-0.37,0.9-0.55,1.48-0.55h7.21
		c0.64,0,1.14,0.19,1.52,0.55c0.38,0.37,0.56,0.87,0.56,1.49v3.49c3.53-4.26,8.37-6.39,14.51-6.39c5.33,0,9.56,1.7,12.68,5.11
		c3.13,3.41,4.69,8.09,4.69,14.05v23.93c0,0.57-0.19,1.05-0.57,1.45c-0.38,0.4-0.88,0.6-1.52,0.6h-7.82c-0.58,0-1.07-0.2-1.48-0.6
		c-0.41-0.4-0.61-0.88-0.61-1.45v-23.42c0-3.29-0.83-5.86-2.48-7.71c-1.65-1.84-4.01-2.77-7.08-2.77c-2.95,0-5.33,0.94-7.12,2.81
		c-1.8,1.87-2.69,4.43-2.69,7.66v23.42c0,0.57-0.19,1.05-0.56,1.45c-0.38,0.4-0.88,0.6-1.52,0.6h-7.73
		C220.38,441.85,219.88,441.66,219.48,441.26z"/>
	<path d="M283.42,437.81c-2.66-2.7-4-6.66-4-11.88v-19.25h-6.86c-0.58,0-1.07-0.2-1.48-0.6c-0.41-0.4-0.61-0.88-0.61-1.45v-5.02
		c0-0.57,0.2-1.05,0.61-1.45c0.4-0.4,0.9-0.6,1.48-0.6h6.86v-14.14c0-0.62,0.2-1.12,0.61-1.49c0.4-0.37,0.9-0.55,1.48-0.55h7.21
		c0.64,0,1.14,0.18,1.52,0.55c0.38,0.37,0.57,0.87,0.57,1.49v14.14h10.86c0.58,0,1.07,0.2,1.48,0.6c0.4,0.4,0.61,0.88,0.61,1.45
		v5.02c0,0.57-0.2,1.05-0.61,1.45c-0.41,0.4-0.9,0.6-1.48,0.6h-10.86v18.31c0,2.44,0.43,4.29,1.3,5.54
		c0.87,1.25,2.29,1.87,4.26,1.87h6.08c0.64,0,1.14,0.18,1.52,0.55c0.38,0.37,0.56,0.87,0.56,1.49v5.37c0,0.57-0.19,1.05-0.56,1.45
		c-0.38,0.4-0.88,0.6-1.52,0.6h-7.12C290.05,441.85,286.09,440.51,283.42,437.81z"/>
	<path d="M318.74,437.51c-3.79-3.46-5.81-8.26-6.04-14.39l-0.09-3.41l0.09-3.41c0.23-6.13,2.24-10.93,6.04-14.39
		c3.79-3.46,8.88-5.2,15.25-5.2c4.58,0,8.44,0.8,11.6,2.38c3.16,1.59,5.5,3.53,7.04,5.83c1.53,2.3,2.36,4.5,2.48,6.6
		c0.06,0.57-0.13,1.05-0.56,1.45c-0.43,0.4-0.94,0.6-1.52,0.6h-7.73c-0.64,0-1.1-0.13-1.39-0.38c-0.29-0.26-0.58-0.72-0.87-1.41
		c-0.87-2.16-2.01-3.72-3.43-4.68c-1.42-0.97-3.23-1.45-5.43-1.45c-2.95,0-5.26,0.91-6.91,2.72c-1.65,1.82-2.53,4.6-2.65,8.35
		l-0.09,3.15l0.09,2.81c0.35,7.38,3.53,11.07,9.56,11.07c2.26,0,4.08-0.47,5.47-1.41c1.39-0.94,2.52-2.51,3.39-4.73
		c0.23-0.62,0.51-1.08,0.83-1.36c0.32-0.28,0.8-0.43,1.43-0.43h7.73c0.58,0,1.09,0.2,1.52,0.6c0.43,0.4,0.62,0.88,0.56,1.45
		c-0.12,1.99-0.93,4.13-2.43,6.43c-1.51,2.3-3.82,4.27-6.95,5.92c-3.13,1.65-7.04,2.47-11.73,2.47
		C327.62,442.71,322.53,440.97,318.74,437.51z"/>
	<path d="M370.57,437.59c-3.71-3.41-5.71-8.12-5.99-14.14l-0.09-3.75l0.09-3.75c0.29-5.96,2.32-10.66,6.08-14.09
		c3.76-3.43,9.01-5.15,15.73-5.15c6.66,0,11.87,1.72,15.64,5.15c3.76,3.44,5.79,8.13,6.08,14.09c0.06,0.68,0.09,1.93,0.09,3.75
		c0,1.82-0.03,3.07-0.09,3.75c-0.29,6.02-2.29,10.73-5.99,14.14c-3.71,3.41-8.95,5.11-15.73,5.11
		C379.54,442.71,374.27,441,370.57,437.59z M393.46,431.29c1.65-1.87,2.53-4.63,2.65-8.26c0.06-0.57,0.09-1.67,0.09-3.32
		c0-1.65-0.03-2.75-0.09-3.32c-0.12-3.63-1.01-6.4-2.69-8.3c-1.68-1.9-4.03-2.85-7.04-2.85c-3.07,0-5.44,0.95-7.12,2.85
		c-1.68,1.9-2.58,4.67-2.69,8.3l-0.09,3.32l0.09,3.32c0.12,3.63,1.01,6.39,2.69,8.26c1.68,1.87,4.05,2.81,7.12,2.81
		C389.45,434.1,391.81,433.17,393.46,431.29z"/>
</g>
<path d="M548.79,460.35c-1.75-2.21-3.44-4.35-5.13-6.49c-3.09-3.91-6.17-7.82-9.26-11.72c-0.26-0.33-0.4-0.56-0.12-1
	c2.91-4.52,4.42-9.56,5.35-14.8c0.91-5.15,1.26-10.34,1.24-15.56c-0.02-5.41-0.06-10.84-0.35-16.24
	c-0.35-6.33-1.43-12.56-4.14-18.37c-4.28-9.18-11.65-14.35-21.49-15.88c-9.23-1.44-17.42,1.12-24.35,7.41
	c-3.86,3.51-6.17,8.01-7.71,12.94c-1.78,5.71-2.52,11.59-2.64,17.53c-0.12,6.03-0.16,12.07,0.04,18.1
	c0.22,6.83,1.13,13.57,3.83,19.94c4.13,9.72,11.61,15.18,21.88,16.97c4.25,0.74,8.47,0.48,12.62-0.78c0.35-0.11,0.58-0.09,0.85,0.24
	c4.7,5.99,9.41,11.96,14.11,17.94c0.03,0.04,0.05,0.09,0.11,0.22c-0.25,0.11-0.49,0.23-0.73,0.34c-6.94,2.89-14.19,4.25-21.69,4.33
	c-8.34,0.09-16.38-1.32-23.99-4.78c-14.15-6.45-23.34-17.3-28.06-32.02c-1.77-5.5-2.74-11.17-3.09-16.92
	c-0.33-5.45-0.55-10.92-0.58-16.38c-0.03-7.07,0.33-14.12,1.48-21.12c1.63-9.91,5.05-19.05,11.42-26.94
	c7.2-8.92,16.37-14.76,27.47-17.5c12.94-3.2,25.64-2.39,37.9,2.99c10.73,4.71,18.7,12.46,24.22,22.76
	c3.25,6.07,5.06,12.6,6.12,19.36c0.89,5.69,1.22,11.43,1.33,17.18c0.13,6.76,0.05,13.51-0.56,20.25
	c-0.78,8.63-2.54,17.02-6.49,24.83C555.89,452.03,552.7,456.39,548.79,460.35z"/>
</svg>

<?xml version="1.0" encoding="UTF-8" standalone="no"?>
<!DOCTYPE svg PUBLIC "-//W3C//DTD SVG 1.1//EN" "http://www.w3.org/Graphics/SVG/1.1/DTD/svg11.dtd">
<svg width="100%" height="100%" viewBox="0 0 599 200" version="1.1" xmlns="http://www.w3.org/2000/svg" xmlns:xlink="http://www.w3.org/1999/xlink" xml:space="preserve" xmlns:serif="http://www.serif.com/" style="fill-rule:evenodd;clip-rule:evenodd;stroke-linejoin:round;stroke-miterlimit:2;">
    <g transform="matrix(1,0,0,1,0,-301)">
        <g>
            <path d="M86.03,457.48C85.62,457.11 85.42,456.61 85.42,455.99L85.42,436.66C82.35,440.69 77.89,442.71 72.04,442.71C66.25,442.71 61.77,440.88 58.62,437.22C55.46,433.56 53.77,428.75 53.54,422.78L53.45,419.71L53.54,416.64C53.77,410.57 55.45,405.73 58.58,402.12C61.71,398.51 66.2,396.71 72.05,396.71C78.13,396.71 82.76,398.81 85.95,403.01L85.95,399.6C85.95,398.98 86.15,398.48 86.56,398.11C86.96,397.74 87.46,397.56 88.04,397.56L95.08,397.56C95.72,397.56 96.22,397.75 96.6,398.11C96.98,398.48 97.16,398.98 97.16,399.6L97.16,455.98C97.16,456.6 96.97,457.1 96.6,457.47C96.22,457.84 95.72,458.02 95.08,458.02L87.52,458.02C86.93,458.04 86.43,457.85 86.03,457.48ZM82.68,430.53C84.39,428.54 85.3,426.13 85.42,423.29C85.48,422.55 85.51,421.45 85.51,419.97C85.51,418.49 85.48,417.41 85.42,416.73C85.25,413.66 84.35,411.1 82.73,409.02C81.11,406.95 78.65,405.91 75.34,405.91C69.2,405.91 65.93,409.66 65.52,417.15C65.46,417.72 65.43,418.57 65.43,419.71C65.43,420.85 65.46,421.7 65.52,422.27C65.92,429.77 69.2,433.51 75.34,433.51C78.53,433.51 80.97,432.51 82.68,430.53Z" style="fill-rule:nonzero;"/>
            <path d="M114.96,437.59C111.89,434.18 110.36,429.5 110.36,423.54L110.36,399.61C110.36,398.99 110.56,398.49 110.97,398.12C111.37,397.75 111.87,397.57 112.45,397.57L120.27,397.57C120.85,397.57 121.34,397.77 121.75,398.17C122.15,398.57 122.36,399.05 122.36,399.62L122.36,423.04C122.36,430.02 125.46,433.52 131.66,433.52C134.67,433.52 137.06,432.58 138.83,430.71C140.6,428.84 141.48,426.28 141.48,423.04L141.48,399.62C141.48,399 141.68,398.5 142.09,398.13C142.49,397.76 142.99,397.58 143.57,397.58L151.3,397.58C151.94,397.58 152.44,397.77 152.82,398.13C153.2,398.5 153.38,399 153.38,399.62L153.38,439.82C153.38,440.39 153.19,440.87 152.82,441.27C152.44,441.67 151.94,441.87 151.3,441.87L144.09,441.87C143.51,441.87 143.02,441.67 142.61,441.27C142.2,440.87 142,440.39 142,439.82L142,436.33C138.81,440.59 134.01,442.72 127.58,442.72C122.23,442.71 118.03,441 114.96,437.59Z" style="fill-rule:nonzero;"/>
            <path d="M172,440.96C169.54,439.8 167.6,438.22 166.18,436.23C164.76,434.24 164.05,432.06 164.05,429.67C164.05,425.81 165.64,422.69 168.83,420.3C172.01,417.92 176.39,416.3 181.95,415.45L193.85,413.75L193.85,411.96C193.85,409.52 193.21,407.67 191.94,406.42C190.67,405.17 188.64,404.55 185.86,404.55C183.95,404.55 182.41,404.89 181.25,405.57C180.09,406.25 179.15,406.95 178.43,407.66C177.71,408.37 177.23,408.84 177,409.07C176.77,409.75 176.33,410.09 175.7,410.09L168.92,410.09C168.4,410.09 167.95,409.92 167.57,409.58C167.19,409.24 167.01,408.79 167.01,408.22C167.07,406.8 167.78,405.2 169.14,403.41C170.5,401.62 172.6,400.06 175.44,398.73C178.28,397.4 181.78,396.73 185.95,396.73C192.78,396.73 197.77,398.24 200.89,401.24C204.02,404.25 205.58,408.2 205.58,413.08L205.58,439.82C205.58,440.39 205.39,440.87 205.02,441.27C204.64,441.67 204.14,441.87 203.5,441.87L196.29,441.87C195.71,441.87 195.22,441.67 194.81,441.27C194.4,440.87 194.2,440.39 194.2,439.82L194.2,436.5C192.93,438.32 191.13,439.81 188.81,440.97C186.49,442.13 183.6,442.72 180.12,442.72C177.17,442.71 174.46,442.12 172,440.96ZM190.89,431.46C192.92,429.42 193.93,426.46 193.93,422.6L193.93,420.9L185.24,422.26C178.58,423.28 175.25,425.47 175.25,428.82C175.25,430.64 176.02,432.04 177.55,433.04C179.08,434.03 180.92,434.53 183.07,434.53C186.26,434.53 188.87,433.51 190.89,431.46Z" style="fill-rule:nonzero;"/>
            <path d="M219.48,441.26C219.07,440.86 218.87,440.38 218.87,439.81L218.87,399.61C218.87,398.99 219.07,398.49 219.48,398.12C219.88,397.75 220.38,397.57 220.96,397.57L228.17,397.57C228.81,397.57 229.31,397.76 229.69,398.12C230.07,398.49 230.25,398.99 230.25,399.61L230.25,403.1C233.78,398.84 238.62,396.71 244.76,396.71C250.09,396.71 254.32,398.41 257.44,401.82C260.57,405.23 262.13,409.91 262.13,415.87L262.13,439.8C262.13,440.37 261.94,440.85 261.56,441.25C261.18,441.65 260.68,441.85 260.04,441.85L252.22,441.85C251.64,441.85 251.15,441.65 250.74,441.25C250.33,440.85 250.13,440.37 250.13,439.8L250.13,416.38C250.13,413.09 249.3,410.52 247.65,408.67C246,406.83 243.64,405.9 240.57,405.9C237.62,405.9 235.24,406.84 233.45,408.71C231.65,410.58 230.76,413.14 230.76,416.37L230.76,439.79C230.76,440.36 230.57,440.84 230.2,441.24C229.82,441.64 229.32,441.84 228.68,441.84L220.95,441.84C220.38,441.85 219.88,441.66 219.48,441.26Z" style="fill-rule:nonzero;"/>
            <path d="M283.42,437.81C280.76,435.11 279.42,431.15 279.42,425.93L279.42,406.68L272.56,406.68C271.98,406.68 271.49,406.48 271.08,406.08C270.67,405.68 270.47,405.2 270.47,404.63L270.47,399.61C270.47,399.04 270.67,398.56 271.08,398.16C271.48,397.76 271.98,397.56 272.56,397.56L279.42,397.56L279.42,383.42C279.42,382.8 279.62,382.3 280.03,381.93C280.43,381.56 280.93,381.38 281.51,381.38L288.72,381.38C289.36,381.38 289.86,381.56 290.24,381.93C290.62,382.3 290.81,382.8 290.81,383.42L290.81,397.56L301.67,397.56C302.25,397.56 302.74,397.76 303.15,398.16C303.55,398.56 303.76,399.04 303.76,399.61L303.76,404.63C303.76,405.2 303.56,405.68 303.15,406.08C302.74,406.48 302.25,406.68 301.67,406.68L290.81,406.68L290.81,424.99C290.81,427.43 291.24,429.28 292.11,430.53C292.98,431.78 294.4,432.4 296.37,432.4L302.45,432.4C303.09,432.4 303.59,432.58 303.97,432.95C304.35,433.32 304.53,433.82 304.53,434.44L304.53,439.81C304.53,440.38 304.34,440.86 303.97,441.26C303.59,441.66 303.09,441.86 302.45,441.86L295.33,441.86C290.05,441.85 286.09,440.51 283.42,437.81Z" style="fill-rule:nonzero;"/>
            <path d="M318.74,437.51C314.95,434.05 312.93,429.25 312.7,423.12L312.61,419.71L312.7,416.3C312.93,410.17 314.94,405.37 318.74,401.91C322.53,398.45 327.62,396.71 333.99,396.71C338.57,396.71 342.43,397.51 345.59,399.09C348.75,400.68 351.09,402.62 352.63,404.92C354.16,407.22 354.99,409.42 355.11,411.52C355.17,412.09 354.98,412.57 354.55,412.97C354.12,413.37 353.61,413.57 353.03,413.57L345.3,413.57C344.66,413.57 344.2,413.44 343.91,413.19C343.62,412.93 343.33,412.47 343.04,411.78C342.17,409.62 341.03,408.06 339.61,407.1C338.19,406.13 336.38,405.65 334.18,405.65C331.23,405.65 328.92,406.56 327.27,408.37C325.62,410.19 324.74,412.97 324.62,416.72L324.53,419.87L324.62,422.68C324.97,430.06 328.15,433.75 334.18,433.75C336.44,433.75 338.26,433.28 339.65,432.34C341.04,431.4 342.17,429.83 343.04,427.61C343.27,426.99 343.55,426.53 343.87,426.25C344.19,425.97 344.67,425.82 345.3,425.82L353.03,425.82C353.61,425.82 354.12,426.02 354.55,426.42C354.98,426.82 355.17,427.3 355.11,427.87C354.99,429.86 354.18,432 352.68,434.3C351.17,436.6 348.86,438.57 345.73,440.22C342.6,441.87 338.69,442.69 334,442.69C327.62,442.71 322.53,440.97 318.74,437.51Z" style="fill-rule:nonzero;"/>
            <path d="M370.57,437.59C366.86,434.18 364.86,429.47 364.58,423.45L364.49,419.7L364.58,415.95C364.87,409.99 366.9,405.29 370.66,401.86C374.42,398.43 379.67,396.71 386.39,396.71C393.05,396.71 398.26,398.43 402.03,401.86C405.79,405.3 407.82,409.99 408.11,415.95C408.17,416.63 408.2,417.88 408.2,419.7C408.2,421.52 408.17,422.77 408.11,423.45C407.82,429.47 405.82,434.18 402.12,437.59C398.41,441 393.17,442.7 386.39,442.7C379.54,442.71 374.27,441 370.57,437.59ZM393.46,431.29C395.11,429.42 395.99,426.66 396.11,423.03C396.17,422.46 396.2,421.36 396.2,419.71C396.2,418.06 396.17,416.96 396.11,416.39C395.99,412.76 395.1,409.99 393.42,408.09C391.74,406.19 389.39,405.24 386.38,405.24C383.31,405.24 380.94,406.19 379.26,408.09C377.58,409.99 376.68,412.76 376.57,416.39L376.48,419.71L376.57,423.03C376.69,426.66 377.58,429.42 379.26,431.29C380.94,433.16 383.31,434.1 386.38,434.1C389.45,434.1 391.81,433.17 393.46,431.29Z" style="fill-rule:nonzero;"/>
        </g>
        <path d="M548.79,460.35C547.04,458.14 545.35,456 543.66,453.86C540.57,449.95 537.49,446.04 534.4,442.14C534.14,441.81 534,441.58 534.28,441.14C537.19,436.62 538.7,431.58 539.63,426.34C540.54,421.19 540.89,416 540.87,410.78C540.85,405.37 540.81,399.94 540.52,394.54C540.17,388.21 539.09,381.98 536.38,376.17C532.1,366.99 524.73,361.82 514.89,360.29C505.66,358.85 497.47,361.41 490.54,367.7C486.68,371.21 484.37,375.71 482.83,380.64C481.05,386.35 480.31,392.23 480.19,398.17C480.07,404.2 480.03,410.24 480.23,416.27C480.45,423.1 481.36,429.84 484.06,436.21C488.19,445.93 495.67,451.39 505.94,453.18C510.19,453.92 514.41,453.66 518.56,452.4C518.91,452.29 519.14,452.31 519.41,452.64C524.11,458.63 528.82,464.6 533.52,470.58C533.55,470.62 533.57,470.67 533.63,470.8C533.38,470.91 533.14,471.03 532.9,471.14C525.96,474.03 518.71,475.39 511.21,475.47C502.87,475.56 494.83,474.15 487.22,470.69C473.07,464.24 463.88,453.39 459.16,438.67C457.39,433.17 456.42,427.5 456.07,421.75C455.74,416.3 455.52,410.83 455.49,405.37C455.46,398.3 455.82,391.25 456.97,384.25C458.6,374.34 462.02,365.2 468.39,357.31C475.59,348.39 484.76,342.55 495.86,339.81C508.8,336.61 521.5,337.42 533.76,342.8C544.49,347.51 552.46,355.26 557.98,365.56C561.23,371.63 563.04,378.16 564.1,384.92C564.99,390.61 565.32,396.35 565.43,402.1C565.56,408.86 565.48,415.61 564.87,422.35C564.09,430.98 562.33,439.37 558.38,447.18C555.89,452.03 552.7,456.39 548.79,460.35Z" style="fill-rule:nonzero;"/>
    </g>
</svg>
